X:1
T:The Very Friend I Need
T:The Very Friend I Need
T:William James Kirkpatrick
T:Eliza Edmunds Hewitt, 1904
T:Public Domain Courtesy of the Cyber Hymnal™
T:Public Domain Courtesy of the Cyber Hymnal™
C:William James Kirkpatrick
Z:Public Domain
Z:Courtesy of the Cyber Hymnal™
%%score ( 1 2 ) ( 3 4 )
L:1/8
Q:1/4=95
M:4/4
K:G
V:1 treble 
V:2 treble 
V:3 bass 
V:4 bass 
V:1
 [B,G]>[CA] | [DB]>[DB] [Ec]>[Ec] [DB]>[CA] [B,G]>[CA] | [DB]>[DB] [Fd]>[Ec] [DB]4 | %3
w: 1.~When I’m|sad and hea- vy la- den, Bur- dened|with the weight of sin,|
w: 2.~When I’m|strugg- ling with temp- ta- tion, When my|strength shall al- most fail,|
w: 3.~When I|drink the cup of sor- row, When I|tread the path of grief,|
w: 4.~When I|reach the si- lent ri- ver, When I|wait be- side the tide,|
 [B,G]>[B,G] [B,G]>[B,G] [^CG]<[CB] [CA]>[CG] | [CA]6 [B,G]>[CA] | %5
w: Je- sus is the ve- ry friend I|need; To the|
w: Je- sus is the ve- ry friend I|need; For His|
w: Je- sus is the ve- ry friend I|need; In His|
w: Je- sus is the ve- ry friend I|need; He will|
 [DB]>[DB] [Ec]>[Ec] [DB]>[CA] [B,G]>[CA] | [DB]>[DB] [Fd]>[Ec] [DB]4 | %7
w: blood- stained cross He points me, And He|gives me peace with- in,|
w: arm will bring de- liv- erance, And His|grace will still pre- vail,|
w: Word is con- so- la- tion, In His|pre- sence sweet re- lief,|
w: bear me o’er the bil- lows To the|ra- diant morn- ing side,|
 [B,G]>[B,G] [B,G]>[B,G] [B,G]<[DB] [DB]>[CA] | [B,G]6 ||"^Refrain" [GB]>[Gc] x/ | %10
w: Je- sus is the ve- ry friend I|need.||
w: Je- sus is the ve- ry friend I|need.||
w: Je- sus is the ve- ry friend I|need.||
w: Je- sus is the ve- ry friend I|need.||
 [Gd]>[Gd] [Ge]>[Ge] [Gd]2 [GB]>[Gc] | [Gd]>[Gd] [Ge]>[Ge] [Gd]2 [DG]>[DA] | %12
w: ||
w: ||
w: ||
w: ||
 [GB]>[GB] [GB]>[GB] [Fc]>[GB] [DA]>[EG] | [FA]6 [GB]>[Gc] | [Gd]>[Gd] [Ge]>[Ge] [Gd]2 [DB]>[DA] | %15
w: |||
w: |||
w: |||
w: |||
 [EG]>[EA] [EG]>[CE] !fermata![EG]2 (G>A) | [DB]>[DB] [DB]>[DG] [DFA][DFA] [DFA]>[DF] | [DG]6 |] %18
w: |||
w: |||
w: |||
w: |||
V:2
 x2 | x8 | x8 | x8 | x8 | x8 | x8 | x8 | x6 || x5/2 | x8 | x8 | x8 | x8 | x8 | x6 E2 | x8 | x6 |] %18
V:3
 z2 | z8 | z8 | [E,G,]>[E,G,] [E,G,]>[E,G,] [A,,G,]<[A,,G,] [A,,G,]>[A,,G,] | [D,F,]6 z2 | z8 | %6
w: |||~ ~ ~ ~ ~ ~ ~ ~|~||
 z8 | [E,G,]>[E,G,] [E,G,]>[E,G,] [D,G,]<[D,G,] [D,F,]>[D,F,] | [G,,G,]6 || G,2 [G,A,]/ | %10
w: |~ ~ ~ ~ ~ ~ ~ ~|~|O, He|
 [G,B,]>[G,B,] [G,C]>[G,C] [G,B,]2 [G,D]>[G,C] | [G,B,]>[G,B,] [G,C]>[G,C] [G,B,]2 [G,B,]>[G,C] | %12
w: is the best of friends, For His|good- ness ne- ver ends, And His|
 [G,D]>[G,D] [G,D]>[G,D] [A,D]>[G,D] [F,D]>[E,^C] | [D,D]6 [G,D]>[G,D] | %14
w: love will ev- ery hu- man thought ex-|ceed; Let me|
 [G,B,]>[G,B,] [G,C]>[G,C] [G,B,]2 [G,B,]>[G,B,] | %15
w: love Him more and more, ’Till I|
 [C,C]>[C,C] [C,C]>[C,G,] !fermata![C,G,]2 [^C,G,]2 | %16
w: stand on glo- ry’s shore; O,|
 [D,G,]>[D,G,] [D,G,]>[D,B,] [D,C][D,C] [D,C]>[D,C] | [G,,B,]6 |] %18
w: Je- sus is the ve- ry friend I|need.|
V:4
 x2 | x8 | x8 | x8 | x8 | x8 | x8 | x8 | x6 || G,3/2 x | x8 | x8 | x8 | x8 | x8 | x8 | x8 | x6 |] %18

